X:1
T:Libera me - Casciolini
T:James Gibb editions
T:#
%%score [ 1 2 3 4 ]
L:1/8
Q:1/4=66
M:4/4
K:C
V:1 treble nm="Soprano" snm="S"
V:2 treble nm="Alto" snm="A"
V:3 treble-8 nm="Tenor" snm="T"
V:4 bass nm="Bass" snm="B"
V:1
"^Libera me""^Claudio Casciolini\n(1697-1760)"!p!"^andante" F3 G A2 A2 | (A4 G3) G | %2
w: Li- be- ra me,|Do\- * mi-|
"^," F2!p! A2 !>!_B4 |"^," A2 A2"^,"!f! !>!_B4 | c2!mf! F2 G4 |"^," A2!p! A2 A4 | %6
w: ne, de mor-|te, de mor-|te ae- ter-|na in di-|
[M:4/4] G2 !>!G2 F2 A2 | (!>!A2 ^G2)"^," A2!f!"^un poco più mosso"[Q:1/4=72] A2- | A2 =B2 A4 | %9
w: e il- la tre-|men\- * da, quan\-|* do coe-|
 ^G2 A2 A2 A2 |"^," =G2!mf! G2 G2 G2 | F2!p! A2 !>!G4 | %12
w: li mo- ven- di|sunt, mo- ven- di|sunt et ter-|
[Q:1/4=72]"^,"[Q:1/4=72][Q:1/4=72][Q:1/4=72] A2 A2!mf! _B4- | B2 A2"^," A2 A2- | A2 A2 !>!A4 | %15
w: ra, dum ve\-|* ne- ris ju\-|* di- ca-|
"^," A2 A4 A2 | G2!>(! F2 E4!>)! | !fermata!^F8 ||[Q:1/4=76] z8 | z8 | %20
w: re sae- cu-|lum per i-|gnem.|||
[Q:1/4=76][Q:1/4=76][Q:1/4=76][Q:1/4=76] z8 | z8 | z8 | z8 | z8 | z8 | z8 | z8 | z8 | z8 | z8 | %31
w: |||||||||||
 z8 | z8 | z8 | z8 | z8 | z8 ||"^Tutti"!mf!!<(! =F4 G4!<)! | A4 G2 A2 | G2 A2 G2 F2 | %40
w: ||||||Quan- do|coe- li mo-|ven- di sunt et|
!>(! E4!>)!!p! !fermata!^F4 ||"^Solo" z2!mf! d4 ^c2 | d8 |"^," ^c2 !>!c4 d2 | (_B=c d4 ^c2) | %45
w: ter\- ra.|Di- es|il-|la, di- es|i\- * * *|
"^," d2 d2 ^c2 =c2 | (B2 _B2) A4 | z4 z2 d2- | d2 ^c2 (d=c_BA | G2 A2 _B3) B | A2 z2 z2 dc | %51
w: rae, ca- la- mi-|ta\- * tis|et|* mi- se\- * * *|* * * ri-|ae, di- es|
 _B4"^," B2 BB | A2 A2 !>!G4 |"^," F2!<(! AA _B2 =B2 | (^c2!<)! d3!>(! c/B/ c2)!>)! | %55
w: ma- gna et a-|ma- ra val-|de, et a- ma- ra|val\- * * * *|
 !fermata!d8 ||"^Tutti"!f! A4 (_B=c d2- | d2) ^c2 d2 A2- | A2 A2 !>!A4 |"^," A2 A4 A2 | %60
w: de.|Dum ve\- * *|* ne- ris ju\-|* di- ca-|re sae- cu-|
 G2 F2!>(! E4!>)! | !fermata!^F8 ||!p!"^lento"[Q:1/4=66] A6 G2 | F2 A2 !>!G4 | %64
w: lum per i-|gnem.|Re- qui-|em ae- ter-|
[Q:1/4=66]"^,"[Q:1/4=66][Q:1/4=66][Q:1/4=66] F2!<(! (A3 _B) (cB) | A2!<)! _B2!mf!!>(! G3 G!>)! | %66
w: nam do\- * na *|e- is, Do- mi-|
"^," A2!<(! A2 G2 A2!<)! | G3 G"^," G2 !>!F2- | FF!>(! G2 E4!>)! | !fermata!^F8 || %70
w: ne, et lux per-|pe- tu- a lu\-|* ce- at e-|is.|
!p! F4"^,"!<(! G2 (c2 | A2!<)! _B2 c3 B | A4) G3 G | F2 z2 z2 (c2- | c_B A3 G F2) | (E2 F4) E2 | %76
w: Ky- rie e\-||* le- i-|son, e\-||le\- * i-|
 !fermata!F8 || F8 F4 G4 (A8 G8) F2 !fermata!F8 ||[M:4/4] A4 G2 (c2- | c2 _B4 A2- | %80
w: son.|Chri- ste e- le\- * i- son.|Ky- rie e\-||
 A2 GF[Q:1/4=64] E2)[Q:1/4=62] F2- | %81
w: * * * * le\-|
"^rit."[Q:1/4=59] F2[Q:1/4=57]!>(! E2!>)![Q:1/4=56] !fermata!F4 |] x8 | %83
w: * i son.||
V:2
!p! D6 E2 | F2 D2 E3 E |"^," A,2!p! F2 (D3 E) |"^," F2 F2!f! F2 !>!G2- | GF!mf! (F4 E2) | %5
w: Li- be-|ra me, Do- mi-|ne, de mor\- *|te, de mor- te|* ae\- ter\- *|
"^," F2!p! F2 F4 |[M:4/4] E2 !>!E2 C2 F2 | !>!E4"^," E2!f! E2- | E2 E2 E4 | E2 E2 F2 F2 | %10
w: na in di-|e il- la tre-|men- da, quan\-|* do coe-|li mo- ven- di|
"^," D2!mf! D2 E2 E2 | C2!p! F2 (!>!F2 E2) |"^," F2 F2!mf! (F4 | E3) E"^," F2 F2- | F2 E2 !>!F4 | %15
w: sunt, mo- ven- di|sunt et ter\- *|ra, dum ve\-|* ne- ris ju\-|* di- ca-|
"^," E2 E4 F2 | D2!>(! D2 (D2 ^C2)!>)! | !fermata!D8 ||!p!"^Solo" D4 E4 |!<(! (F3 E DEFG!<)! | %20
w: re sae- cu-|lum per i\- *|gnem.|Tre- mens|fa\- * * * * *|
 AE A4 ^G2) | A2"^," A2 (A3 =G) | F2 F2 G3 G |"^," F2 F2 F3 F | E8 | z4 z2 A2 | (F3 E) D2 D2 | %27
w: |ctus sum e\- *|go et ti- me-|o, et ti- me-|o,|sum|e\- * go et|
 (!>!G2!>(! F4) E2!>)! | F2 z2 z4 | z2!mp! F4 E2 | F3 F"^," E2 (E2- | E2 DC D2) D2 | E2 z2 z4 | %33
w: ti\- * me-|o,|dum di-|scus- si- o ve\-|* * * * ne-|rit,|
 z2 !>!E2 F2 F2 | E4 F4 |!>(! E8!>)! |!pp! !fermata!^F8 ||"^Tutti"!mf!!<(! D4 E4!<)! | F4 E2 F2 | %39
w: at- que ven-|tu- ra|i-|ra.|Quan- do|coe- li mo-|
 G2 F2 E2 D2 |!>(! (D2 ^C2)!>)!!p! !fermata!D4 ||"^Solo"!mf! =F4 E2 (A2- | A2 GF G4) | A4 z2 A2- | %44
w: ven- di sunt et|ter\- * ra.|Di- es i\-||la, di\-|
 A2 (GF) G4 | F2 z2 z2 A2 | ^G2 =G2 ^F2 =F2 | E2 A4 (^G2 | A3 =G F2 GF | E2 F4) E2 |"^," F2 FE D4 | %51
w: * es * i-|rae, ca-|la- mi- ta- tis|et mi- se\-||* * ri-|ae, di- es ma-|
"^," D2 DD (GFED | ^C)A, (D4 C2) |"^," D2!<(! ^FF G2 =F2 | (E2!<)! F2!>(! E4)!>)! | !fermata!^F8 || %56
w: gna et a- ma\- * * *|* ra val\- *|de, et a- ma- ra|val\- * *|de.|
!f!"^Tutti" ^F4 G4- | G2 G2 =F2 F2- | F2 E2 !>!F4 |"^," E2 E4 F2 | D2 D2!>(! (D2 ^C2)!>)! | %61
w: Dum ve\-|* ne- ris ju\-|* di- ca-|re sae- cu-|lum per i\- *|
 !fermata!D8 ||!p! F6 G2 | A2 F2 !>!E4 |"^," A,2!<(! F4 G2 | A2!<)! (GF)!mf!!>(! E3 E!>)! | %66
w: gnem.|Re- qui-|em ae- ter-|nam do- na|e- is, * Do- mi-|
"^," F2!<(! F2 G2 F2!<)! | E3 E"^," E2 !>!D2- | DD!>(! D2 (D2 ^C2)!>)! | !fermata!D8 || %70
w: ne, et lux per-|pe- tu- a lu\-|* ce- at e\- *|is.|
 z4!p!!<(! C4 |"^," D2!<)! (G2 E2 C2 | F6 E2) | D3 D"^," C2 (E2 | F2 C2) (D3 C/_B,/ | C6) C2 | %76
w: Ky-|rie e\- * *||le- i- son, e\-|* * le\- * *|* i-|
 !fermata!C8 || [xx]30 x10 x2 ||[M:4/4] F4 G2 (E2 | F8 | D4) C4- | %81
w: son.||Ky- rie e\-||* le\-|
"^rit." C2!>(! C2!>)! !fermata!C4 |] x8 | %83
w: * i- son.||
V:3
!p! A3 G F2 E2 | (D2 d4) ^c2 |"^," d2!p! d2 _B4 |"^," =c2 c2!f! !>!d4 | c2!mf! c2 _B4 | %5
w: Li- be- ra me,|Do\- * mi-|ne, de mor-|te, de mor-|te ae- ter-|
"^," c2!p! c2 c4 |[M:4/4][K:treble-8] c2 !>!c2 A2 d2 | !>!=B4"^," c2!f! c2- | c2 B2 c4 | %9
w: na in di-|e il- la tre-|men- da, quan\-|* do coe-|
 B2 ^c2 d2 d2 |"^," _B2!mf! B2 =c2 c2 | A2!p! c2 !>!c4 |"^," c2 c2!mf! d4- | d2 ^c2"^," d2 d2- | %14
w: li mo- ven- di|sunt, mo- ven- di|sunt et ter-|ra, dum ve\-|* ne- ris ju\-|
 d2 e2 !>!d4 |"^," ^c2 c4 d2 | _B2 A2!>(! A4!>)! | !fermata!A8 || z8 | z8 |"^Solo"!p! A4!<(! B4 | %21
w: * di- ca-|re sae- cu-|lum per i-|gnem.|||Tre- mens|
 (c3 B!<)! ABcA | dA d4 ^c2) | d2 d2 d4 | c2 c2 B3 B | A2 ^c2 d4 | d2 A2 (!>!_B4- | %27
w: fa\- * * * * *||ctus sum e-|go et ti- me-|o, sum e-|go et ti\-|
 B2 A2!>(! G3) G!>)! | A2 z2 z4 | z4 z2!mp! c2- | c2 =B2 c3 c | A2 A4"^," A2 | ^G2 !>!B2 c2 G2 | %33
w: * * * me-|o,|dum|* di- scus- si-|o ve- ne-|rit, at- que ven-|
 !>!A4"^," A2 d2 | !>!^c2 A2 (d4- | d2!>(! ^cB c4)!>)! |!pp! !fermata!d8 || %37
w: tu- ra, ven-|tu- ra i\-||ra.|
"^Tutti"!mf!!<(! A4 =c4!<)! | c4 c2 c2 | c2 c2 c2 A2 |!>(! A4!>)!!p! !fermata!A4 || %41
w: Quan- do|coe- li mo-|ven- di sunt et|ter\- ra.|
"^Solo"!mf! D4 A4 | _B8 |"^," A2 !>!A4 F2 | (G4 A4) | D2 z2 z4 | z4 z2 d2 | ^c2 =c2 (B2 _B2) | %48
w: Di- es|il-|la, di- es|i\- *|rae,|ca-|la- mi- ta\- *|
"^," A4 _B4- | B2 A2 G3 G | F2 z2 z2 _BA | G4 G2 GG | G2 F2 E4 |"^," D2!<(! DD G2 ^G2!<)! | %54
w: tis et|* mi- se- ri-|ae, di- es|ma- gna et a-|ma- ra val-|de, et a- ma- ra|
!>(! A8!>)! | !fermata!d8 ||!f!"^Tutti" d4 dc_BA | G2!mf! G2 A2 d2- | d2 e2 !>!d4 |"^," ^c2 c4 d2 | %60
w: val-|de.|Dum ve\- * * *|* ne- ris ju\-|* di- ca-|re sae- cu-|
 _B2 A2!>(! A4!>)! | !fermata!A8 ||!p! c6 c2 | cA (!>!d4 ^c2) |"^," d2!<(! d4 =c2 | %65
w: lum per i-|gnem.|Re- qui-|em ae- ter\- *|nam do- na|
 c2!<)! d2!mf!!>(! c3 c!>)! |"^," c2!<(! c2 c2 c2!<)! | c3 c"^," c2 !>!A2- | AA!>(! _B2 A4!>)! | %69
w: e- is, Do- mi-|ne, et lux per-|pe- tu- a lu\-|* ce- at e-|
 !fermata!A8 || z8 | z8 |!p!!<(! F4"^," G2!<)! (c2 | A2 _B2 c3 B | A3 G F2 _B2- | B2 A2) G3 G | %76
w: is.|||Ky- rie e\-|||* * le- i-|
 !fermata!A8 || [xx]30 x10 x2 ||[M:4/4] z2 c4 c2 | (d4 c4 | _B6 A2) | %81
w: son.||Ky- rie|e\- *||
"^rit." G3!>(! G!>)! !fermata!A4 |] x8 | %83
w: le- i- son.||
V:4
!p! D,6 ^C,2 | D,2 F,2 E,3 E, |"^," D,2!p! D,2 G,4 |"^," F,2 F,2!f! !>!_B,4 | A,2!mf! A,2 G,4 | %5
w: Li- be-|ra me, Do- mi-|ne, de mor-|te, de mor-|te ae- ter-|
"^," F,2!p! F,2 F,4 |[M:4/4] C,2 C,2 F,2 D,2 | E,4"^," A,,2!f! A,2- | A,2 ^G,2 A,4 | %9
w: na in di-|e il- la tre-|men- da, quan\-|* do coe-|
 E,2 A,2 F,2 D,2 |"^," =G,2!mf! G,2 E,2 C,2 | F,2!p! F,2 !>!C,4 |"^," F,2 F,2!mf! (_B,3 A, | %13
w: li mo- ven- di|sunt, mo- ven- di|sunt et ter-|ra, dum ve\- *|
 G,2) A,2"^," D,2 D,2- | D,2 ^C,2 !>!D,4 |"^," A,,2 A,4 F,2 | G,2 D,2!>(! A,,4!>)! | %17
w: * ne- ris ju\-|* di- ca-|re sae- cu-|lum per i-|
 !fermata!D,8 || z8 | z8 | z8 | z8 |"^Solo"!p! D,4!<(! E,4 | (F,3 E,!<)! D,E,F,G, | %24
w: gnem.|||||Tre- mens|fa\- * * * * *|
 A,E, A,4 ^G,2) | A,2"^," A,2 F,3 E, | D,2 D,2 (!>!=G,3 F, | E,2 F,2!>(! C,3) C,!>)! | %28
w: |ctus sum e- *|go et ti\- *|* * * me-|
"^," F,2!mp! F,4 E,2 | F,3 F, C,4 | (D,4 C,D,E,C, | F,6) F,2 | E,2 z2 z2 !>!E,2 | F,2 ^C,2 D,4 | %34
w: o, dum di-|scus- si- o|ve\- * * * *|* ne-|rit, at-|que ven- tu-|
"^," A,,2 A,2 F,2 D,2 |!>(! A,,8!>)! |!pp! !fermata!D,8 ||"^Tutti"!mf!!<(! D,4 =C,4!<)! | %38
w: ra, ven- tu- ra|i-|ra.|Quan- do|
 F,4 C,2 F,2 | E,2 F,2 C,2 D,2 |!>(! A,,4!>)!!p! !fermata!D,4 || z8 | z8 | z8 | z8 | z8 | z8 | z8 | %48
w: coe- li mo-|ven- di sunt et|ter\- ra.||||||||
 z8 | z8 | z8 | z8 | z8 | z8 | z8 | !fermata!z8 ||!f!"^Tutti" D,4 (G,3 F, | E,2) E,2 D,2 D,2- | %58
w: ||||||||Dum ve\- *|* ne- ris ju\-|
 D,2 ^C,2 !>!D,4 |"^," A,,2 A,4 F,2 | G,2 D,2!>(! A,,4!>)! | !fermata!D,8 ||!p! F,6 E,2 | %63
w: * di- ca-|re sae- cu-|lum per i-|gnem.|Re- qui-|
 F,2 D,2 !>!E,4 |"^," D,2!<(! D,4 E,2 | F,2!<)! _B,,2!mf!!>(! C,3 C,!>)! | %66
w: em ae- ter-|nam do- na|e- is, Do- mi-|
"^," F,2!<(! F,2 E,2 F,2!<)! | C,3 C,"^," C,2 !>!D,2- | D,D,!>(! G,2 A,4!>)! | !fermata!D,8 || z8 | %71
w: ne, et lux per-|pe- tu- a lu\-|* ce- at e-|is.||
 z8 | z4!p!!<(! C,4!<)! | D,2 (G,2 E,2 C,2 | F,3 E, D,4) | C,6 C,2 | !fermata!F,8 || %77
w: |Ky-|rie e\- * *||le- i-|son.|
 [xx]30 x10 x2 ||[M:4/4] F,4 E,4 | (D,3 E, F,4 | _B,,4) C,4- | %81
w: |Ky- rie|e\- * *|* le\-|
"^rit." C,2!>(! C,2!>)! !fermata!F,4 |] x8 | %83
w: * i- son.||

